X:431
T: Kanghan haozi
N: C2049
O: China,Anhui Tongling
S: III, 541]
R: Xiaodiao. Nongtian laodong]
M: 2/4
L: 1/16
K: A
B3cF2A2 | B4B4 | c3ec2B2 | A2B2c2e2 | B2c2B2A2 |
F2F4A2 | B4B4 |
c3ec2B2 | A3Bc2e2 | B2c2B2A2 | A2F6 |
B2BcE2F2 | A4A4 |
E2E4F2 | A4A4 | B3cA2F2 | E4E4

@@@ Tune index: 6986
